lib/typescript/assets/images/icons/plus-circle.svg

<?xml version="1.0" encoding="utf-8"?>
<svg width="24" height="24" viewBox="1.5 1.5 21 21" xmlns="http://www.w3.org/2000/svg">
  <path d="M 12.5 11.5 L 16 11.5 C 16.276 11.5 16.5 11.724 16.5 12 C 16.5 12.276 16.276 12.5 16 12.5 L 12.5 12.5 L 12.5 16 C 12.5 16.276 12.276 16.5 12 16.5 C 11.724 16.5 11.5 16.276 11.5 16 L 11.5 12.5 L 8 12.5 C 7.724 12.5 7.5 12.276 7.5 12 C 7.5 11.724 7.724 11.5 8 11.5 L 11.5 11.5 L 11.5 8 C 11.5 7.724 11.724 7.5 12 7.5 C 12.276 7.5 12.5 7.724 12.5 8 L 12.5 11.5 Z M 12 22.5 C 6.201 22.5 1.5 17.799 1.5 12 C 1.5 6.201 6.201 1.5 12 1.5 C 17.799 1.5 22.5 6.201 22.5 12 C 22.5 17.799 17.799 22.5 12 22.5 Z M 12 21.5 C 17.247 21.5 21.5 17.247 21.5 12 C 21.5 6.753 17.247 2.5 12 2.5 C 6.753 2.5 2.5 6.753 2.5 12 C 2.5 17.247 6.753 21.5 12 21.5 Z"/>
</svg>

<svg width="24" height="24" viewBox="1.5 1.5 21 21" xmlns="http://www.w3.org/2000/svg"><path d="M12.5 11.5H16a.5.5 0 0 1 0 1h-3.5V16a.5.5 0 0 1-1 0v-3.5H8a.5.5 0 0 1 0-1h3.5V8a.5.5 0 0 1 1 0v3.5zm-.5 11C6.201 22.5 1.5 17.799 1.5 12S6.201 1.5 12 1.5 22.5 6.201 22.5 12 17.799 22.5 12 22.5zm0-1a9.5 9.5 0 0 0 9.5-9.5A9.5 9.5 0 0 0 12 2.5 9.5 9.5 0 0 0 2.5 12a9.5 9.5 0 0 0 9.5 9.5z"/></svg>
